HTML/img/Component/Mortal Kombat.svg

<?xml version="1.0" encoding="UTF-8" standalone="no"?>
<svg
   xmlns:dc="http://purl.org/dc/elements/1.1/"
   xmlns:cc="http://creativecommons.org/ns#"
   xmlns:rdf="http://www.w3.org/1999/02/22-rdf-syntax-ns#"
   xmlns:svg="http://www.w3.org/2000/svg"
   xmlns="http://www.w3.org/2000/svg"
   xmlns:sodipodi="http://sodipodi.sourceforge.net/DTD/sodipodi-0.dtd"
   xmlns:inkscape="http://www.inkscape.org/namespaces/inkscape"
   viewBox="0 0 348 348"
   fill="none"
   font-family="Arial"
   id="svg2"
   version="1.1"
   inkscape:version="0.91 r13725"
   sodipodi:docname="Identity Parade.svg">
  <metadata
     id="metadata86">
    <rdf:RDF>
      <cc:Work
         rdf:about="">
        <dc:format>image/svg+xml</dc:format>
        <dc:type
           rdf:resource="http://purl.org/dc/dcmitype/StillImage" />
      </cc:Work>
    </rdf:RDF>
  </metadata>
  <defs
     id="defs84" />
  <sodipodi:namedview
     pagecolor="#ffffff"
     bordercolor="#666666"
     borderopacity="1"
     objecttolerance="10"
     gridtolerance="10"
     guidetolerance="10"
     inkscape:pageopacity="0"
     inkscape:pageshadow="2"
     inkscape:window-width="1440"
     inkscape:window-height="801"
     id="namedview82"
     showgrid="false"
     inkscape:zoom="0.67816092"
     inkscape:cx="240.28064"
     inkscape:cy="275.25731"
     inkscape:window-x="0"
     inkscape:window-y="1"
     inkscape:window-maximized="1"
     inkscape:current-layer="svg2" />
  <path
     d="M5 5.8h337v337.6H5z"
     stroke-width="2"
     stroke="#000"
     id="path4" />
  <path
     d="M282.7 40.6c0-8.4 7-15.2 15.6-15.2 4.1 0 8 1.6 11 4.4a15 15 0 0 1 4.6 10.8c0 8.3-7 15.1-15.6 15.1s-15.6-6.8-15.6-15.1z"
     stroke-width="2"
     stroke="#000"
     id="path6" />
  <path
     d="m 10.229269,274.56993 0,-60.96313 326.971951,0 0,122.10935 -326.971951,0 0,-61.14622 z"
     id="path4156"
     inkscape:connector-curvature="0"
     style="fill:#000000" />
  <path
     style="fill:#ffffff;fill-opacity:1;stroke:#000000;stroke-width:1.08648252;stroke-opacity:1"
     inkscape:connector-curvature="0"
     id="path4162"
     d="m 19.065295,111.02609 0,-78.738941 167.324285,0 0,157.714361 -167.324285,0 0,-78.97542 z" />
  <path
     style="fill:#ffffff;fill-opacity:1;stroke:#000000;stroke-width:0.14350322;stroke-opacity:1"
     inkscape:connector-curvature="0"
     id="path4196"
     d="m 61.456992,241.2693 11.13909,0 0,20.6337 -22.31164,0 0,-20.6337 11.17255,0 z" />
  <text
     sodipodi:linespacing="125%"
     id="text4204"
     y="-54.772018"
     x="243.30647"
     style="font-style:normal;font-weight:normal;font-size:19.78680611px;line-height:125%;font-family:sans-serif;letter-spacing:0px;word-spacing:0px;fill:#000000;fill-opacity:1;stroke:none;stroke-width:1px;stroke-linecap:butt;stroke-linejoin:miter;stroke-opacity:1"
     xml:space="preserve"
     transform="matrix(0,1,-1,0,0,0)"><tspan
       y="-54.772018"
       x="243.30647"
       id="tspan4206"
       sodipodi:role="line">&lt;</tspan></text>
  <path
     d="m 224.23993,145.48664 0,-44.09497 96.88962,0 0,88.32238 -96.88962,0 0,-44.22741 z"
     id="path4173"
     inkscape:connector-curvature="0"
     style="fill:#ffffff;fill-opacity:1;stroke:#000000;stroke-width:0.61870223;stroke-opacity:1" />
  <path
     d="m 29.227072,272.94442 0,-11.13909 20.6337,0 0,22.31164 -20.6337,0 0,-11.17255 z"
     id="path4175"
     inkscape:connector-curvature="0"
     style="fill:#ffffff;fill-opacity:1;stroke:#000000;stroke-width:0.14350322;stroke-opacity:1" />
  <text
     xml:space="preserve"
     style="font-style:normal;font-weight:normal;font-size:19.78680611px;line-height:125%;font-family:sans-serif;letter-spacing:0px;word-spacing:0px;fill:#000000;fill-opacity:1;stroke:none;stroke-width:1px;stroke-linecap:butt;stroke-linejoin:miter;stroke-opacity:1"
     x="31.264248"
     y="279.62936"
     id="text4177"
     sodipodi:linespacing="125%"><tspan
       sodipodi:role="line"
       id="tspan4179"
       x="31.264248"
       y="279.62936">&lt;</tspan></text>
  <path
     d="m 61.089484,304.70996 -11.13909,0 0,-20.6337 22.31164,0 0,20.6337 -11.17255,0 z"
     id="path4181"
     inkscape:connector-curvature="0"
     style="fill:#ffffff;fill-opacity:1;stroke:#000000;stroke-width:0.14350322;stroke-opacity:1" />
  <text
     transform="matrix(0,-1,1,0,0,0)"
     xml:space="preserve"
     style="font-style:normal;font-weight:normal;font-size:19.78680611px;line-height:125%;font-family:sans-serif;letter-spacing:0px;word-spacing:0px;fill:#000000;fill-opacity:1;stroke:none;stroke-width:1px;stroke-linecap:butt;stroke-linejoin:miter;stroke-opacity:1"
     x="-302.67279"
     y="67.77446"
     id="text4183"
     sodipodi:linespacing="125%"><tspan
       sodipodi:role="line"
       id="tspan4185"
       x="-302.67279"
       y="67.77446">&lt;</tspan></text>
  <path
     style="fill:#ffffff;fill-opacity:1;stroke:#000000;stroke-width:0.14350322;stroke-opacity:1"
     inkscape:connector-curvature="0"
     id="path4187"
     d="m 93.319404,273.03484 0,11.13909 -20.6337,0 0,-22.31164 20.6337,0 0,11.17255 z" />
  <text
     sodipodi:linespacing="125%"
     id="text4189"
     y="-266.34988"
     x="-91.282227"
     style="font-style:normal;font-weight:normal;font-size:19.78680611px;line-height:125%;font-family:sans-serif;letter-spacing:0px;word-spacing:0px;fill:#000000;fill-opacity:1;stroke:none;stroke-width:1px;stroke-linecap:butt;stroke-linejoin:miter;stroke-opacity:1"
     xml:space="preserve"
     transform="scale(-1,-1)"><tspan
       y="-266.34988"
       x="-91.282227"
       id="tspan4191"
       sodipodi:role="line">&lt;</tspan></text>
  <path
     style="fill:#ffffff;fill-opacity:1;stroke:#000000;stroke-width:0.14880715;stroke-opacity:1"
     inkscape:connector-curvature="0"
     id="path4193"
     d="m 50.213717,272.94442 0,-11.13644 22.19242,0 0,22.30634 -22.19242,0 0,-11.1699 z" />
  <ellipse
     style="fill:#ffffff;fill-opacity:1;stroke-width:0.2;stroke-linejoin:miter;stroke-miterlimit:10;stroke-dasharray:none"
     id="path4195"
     cx="-107.39634"
     cy="233.30489"
     rx="26.067072"
     ry="14.59756" />
  <circle
     style="fill:#ffffff;fill-opacity:1;stroke-width:0.2;stroke-linejoin:miter;stroke-miterlimit:10;stroke-dasharray:none"
     id="path4199"
     cx="163.17987"
     cy="275.01221"
     r="23.981707" />
  <circle
     r="23.981707"
     cy="275.01221"
     cx="305.50607"
     id="circle4201"
     style="fill:#ffffff;fill-opacity:1;stroke-width:0.2;stroke-linejoin:miter;stroke-miterlimit:10;stroke-dasharray:none" />
  <circle
     style="fill:#ffffff;fill-opacity:1;stroke-width:0.2;stroke-linejoin:miter;stroke-miterlimit:10;stroke-dasharray:none"
     id="circle4203"
     cx="237.21036"
     cy="275.53354"
     r="23.981707" />
  <text
     xml:space="preserve"
     style="font-style:normal;font-weight:normal;font-size:19.78680611px;line-height:125%;font-family:sans-serif;letter-spacing:0px;word-spacing:0px;fill:#000000;fill-opacity:1;stroke:none;stroke-width:1px;stroke-linecap:butt;stroke-linejoin:miter;stroke-opacity:1"
     x="156.47864"
     y="282.33856"
     id="text4205"
     sodipodi:linespacing="125%"><tspan
       sodipodi:role="line"
       id="tspan4207"
       x="156.47864"
       y="282.33856">A</tspan></text>
  <text
     sodipodi:linespacing="125%"
     id="text4209"
     y="282.85989"
     x="229.98779"
     style="font-style:normal;font-weight:normal;font-size:19.78680611px;line-height:125%;font-family:sans-serif;letter-spacing:0px;word-spacing:0px;fill:#000000;fill-opacity:1;stroke:none;stroke-width:1px;stroke-linecap:butt;stroke-linejoin:miter;stroke-opacity:1"
     xml:space="preserve"><tspan
       y="282.85989"
       x="229.98779"
       id="tspan4211"
       sodipodi:role="line">B</tspan></text>
  <text
     xml:space="preserve"
     style="font-style:normal;font-weight:normal;font-size:19.78680611px;line-height:125%;font-family:sans-serif;letter-spacing:0px;word-spacing:0px;fill:#000000;fill-opacity:1;stroke:none;stroke-width:1px;stroke-linecap:butt;stroke-linejoin:miter;stroke-opacity:1"
     x="298.80487"
     y="282.33856"
     id="text4213"
     sodipodi:linespacing="125%"><tspan
       sodipodi:role="line"
       id="tspan4215"
       x="298.80487"
       y="282.33856">C</tspan></text>
  <circle
     r="12.81941"
     cy="177.2607"
     cx="204.62651"
     id="circle4217"
     style="fill:#ffffff;fill-opacity:1;stroke:#000000;stroke-width:2;stroke-linejoin:miter;stroke-miterlimit:10;stroke-dasharray:none;stroke-opacity:1" />
  <circle
     style="fill:#ffffff;fill-opacity:1;stroke:#000000;stroke-width:2;stroke-linejoin:miter;stroke-miterlimit:10;stroke-dasharray:none;stroke-opacity:1"
     id="circle4219"
     cx="204.62651"
     cy="141.28813"
     r="12.81941" />
  <circle
     r="12.81941"
     cy="104.87959"
     cx="205.66919"
     id="circle4221"
     style="fill:#ffffff;fill-opacity:1;stroke:#000000;stroke-width:2;stroke-linejoin:miter;stroke-miterlimit:10;stroke-dasharray:none;stroke-opacity:1" />
</svg>

<svg xmlns="http://www.w3.org/2000/svg" fill="none" font-family="Arial" viewBox="0 0 348 348">
    <path stroke="#000" stroke-width="2" d="M5 5.8h337v337.6H5z"/>
    <path stroke="#000" stroke-width="2" d="M282.7 40.6c0-8.4 7-15.2 15.6-15.2 4.1 0 8 1.6 11 4.4a15 15 0 0 1 4.6 10.8c0 8.3-7 15.1-15.6 15.1s-15.6-6.8-15.6-15.1z"/>
    <path fill="#000" d="M10.23 274.57v-60.963H337.2v122.11H10.23V274.57z"/>
    <path fill="#fff" stroke="#000" stroke-width="1.086" d="M19.065 111.026V32.287H186.39v157.715H19.065v-78.976z"/>
    <path fill="#fff" stroke="#000" stroke-width=".144" d="M61.457 241.27h11.14v20.633H50.283v-20.634h11.173z"/>
    <text style="line-height:125%" x="243.306" y="-54.772" fill="#000" font-family="sans-serif" font-size="19.787" font-weight="400" letter-spacing="0" transform="rotate(90)" word-spacing="0">
        <tspan x="243.306" y="-54.772">&lt;</tspan>
    </text>
    <path fill="#fff" stroke="#000" stroke-width=".619" d="M224.24 145.487v-44.095h96.89v88.322h-96.89v-44.227z"/>
    <path fill="#fff" stroke="#000" stroke-width=".144" d="M29.227 272.944v-11.139h20.634v22.312H29.227v-11.173z"/>
    <text x="31.264" y="279.629" fill="#000" font-family="sans-serif" font-size="19.787" font-weight="400" letter-spacing="0" word-spacing="0" style="line-height:125%">
        <tspan x="31.264" y="279.629">&lt;</tspan>
    </text>
    <path fill="#fff" stroke="#000" stroke-width=".144" d="M61.09 304.71H49.95v-20.634h22.312v20.634H61.089z"/>
    <text x="-302.673" y="67.774" fill="#000" font-family="sans-serif" font-size="19.787" font-weight="400" letter-spacing="0" style="line-height:125%" transform="rotate(-90)" word-spacing="0">
        <tspan x="-302.673" y="67.774">&lt;</tspan>
    </text>
    <path fill="#fff" stroke="#000" stroke-width=".144" d="M93.32 273.035v11.139H72.685v-22.312h20.633v11.173z"/>
    <text style="line-height:125%" x="-91.282" y="-266.35" fill="#000" font-family="sans-serif" font-size="19.787" font-weight="400" letter-spacing="0" transform="scale(-1)" word-spacing="0">
        <tspan x="-91.282" y="-266.35">&lt;</tspan>
    </text>
    <path fill="#fff" stroke="#000" stroke-width=".149" d="M50.214 272.944v-11.136h22.192v22.306H50.214v-11.17z"/>
    <ellipse cx="-107.396" cy="233.305" fill="#fff" rx="26.067" ry="14.598"/>
    <circle cx="163.18" cy="275.012" r="23.982" fill="#fff"/>
    <circle cx="305.506" cy="275.012" r="23.982" fill="#fff"/>
    <circle cx="237.21" cy="275.534" r="23.982" fill="#fff"/>
    <text x="156.479" y="282.339" fill="#000" font-family="sans-serif" font-size="19.787" font-weight="400" letter-spacing="0" word-spacing="0" style="line-height:125%">
        <tspan x="156.479" y="282.339">A</tspan>
    </text>
    <text style="line-height:125%" x="229.988" y="282.86" fill="#000" font-family="sans-serif" font-size="19.787" font-weight="400" letter-spacing="0" word-spacing="0">
        <tspan x="229.988" y="282.86">B</tspan>
    </text>
    <text x="298.805" y="282.339" fill="#000" font-family="sans-serif" font-size="19.787" font-weight="400" letter-spacing="0" word-spacing="0" style="line-height:125%">
        <tspan x="298.805" y="282.339">C</tspan>
    </text>
    <circle cx="204.627" cy="177.261" r="12.819" fill="#fff" stroke="#000" stroke-miterlimit="10" stroke-width="2"/>
    <circle cx="204.627" cy="141.288" r="12.819" fill="#fff" stroke="#000" stroke-miterlimit="10" stroke-width="2"/>
    <circle cx="205.669" cy="104.88" r="12.819" fill="#fff" stroke="#000" stroke-miterlimit="10" stroke-width="2"/>
</svg>
